X:39
T:Ardlamon
R:hornpipe
H: [Ardlamon is] in Limerick
H:From Davy Cleary, piper and Dancing-master, Kilfinane: 1842.
B:
M:C
L:1/8
K:G
DGGF G2 Bc|dgfa gdBG|EAAG A2 BA|GFGE DCB,A,|
G,GGF GABc|dgfa gdBG|Eedc BAGF|G2 G2 G3 z:|
|: Eeed efga|bagf edBA|G2 GA BABd|egfd e/d/BAF|
E2 ef e2 ga|b/c'/baf edBG|Eedc BAGF|G2 G2 G3 z :|
